Obsidian-SemiLight/actions/24s/view-media-equalizer.svg

<svg viewBox="0 0 24 24" xmlns="http://www.w3.org/2000/svg"><path d="m16.5 7c-.654697 0-1.202544.417435-1.408203 1h-11.091797v1h11.091797c.206005.58192.753966 1 1.408203 1s1.202198-.41808 1.408203-1h2.091797v-1h-2.091797c-.205659-.582565-.753506-1-1.408203-1zm-7 7c-.654701 0-1.2025421.41743-1.4082031 1h-4.0917969v1h4.0917969c.206006.581925.7539631 1 1.4082031 1s1.202197-.418075 1.408203-1h9.091797v-1h-9.091797c-.205661-.58257-.753502-1-1.408203-1z" fill="#4d4d4d"/></svg>

<svg xmlns="http://www.w3.org/2000/svg" viewBox="0 0 24 24">
  <defs id="defs3051">
    <style type="text/css" id="current-color-scheme">
      .ColorScheme-Text {
        color:#4d4d4d;
      }
      </style>
  </defs>
 <path style="fill:currentColor;fill-opacity:1;stroke:none" 
     d="M 16.5 7 C 15.845303 7 15.297456 7.417435 15.091797 8 L 4 8 L 4 9 L 15.091797 9 C 15.297802 9.58192 15.845763 10 16.5 10 C 17.154237 10 17.702198 9.58192 17.908203 9 L 20 9 L 20 8 L 17.908203 8 C 17.702544 7.417435 17.154697 7 16.5 7 z M 9.5 14 C 8.845299 14 8.2974579 14.41743 8.0917969 15 L 4 15 L 4 16 L 8.0917969 16 C 8.2978029 16.581925 8.84576 17 9.5 17 C 10.15424 17 10.702197 16.581925 10.908203 16 L 20 16 L 20 15 L 10.908203 15 C 10.702542 14.41743 10.154701 14 9.5 14 z "
     class="ColorScheme-Text"
     />
</svg>
